X: 13
T: Denis Murphy's
Z: Bregolas
S: https://thesession.org/tunes/357#setting49477
R: polka
M: 2/4
L: 1/8
K: Dmaj
|:f/g/f/e/ d/c/d/B/|AD FA/F/|G//A//G/E e>d|cB {d}cA|
f/g/f/e/ d/c/d/B/|AD FA/F/|GE e>g|1 f[df] [d2f2]:|2 f[df] [df]>B||
|:Af f/^e/f|Ag g/f/g|Af (3f{g}f{e}f|(3e/f/g/ e/d/ BA|
Af f/^e/f/d/|Ag g/f/g|b[fa] [fa]{b}a/f/|1 e[df] [df]>B:|2 ed d>e||

